dist/assets/img/corporulian-code/result/backdrop_3_1200.svg

<svg width="891" height="566" viewBox="0 0 891 566" fill="none" xmlns="http://www.w3.org/2000/svg"><g filter="url(#filter0_di_1494_47811)"><path fill-rule="evenodd" clip-rule="evenodd" d="M729.581 136.547c-88.813-81.239-344.293-87.752-454.985-31.946-79.287 39.973-130.099 91.466-139.989 157.087-1.25 8.29-5.928 16.213-14.161 17.796-16.015 3.079-32.157-1.63-39.75-3.846a.102.102 0 00-.114.155c7.904 11.983 23.862 17.619 37.056 19.874 8.6 1.469 15.953 8.168 17.246 16.796 2.555 17.051 7.529 34.914 15.082 53.622 42.426 105.084 147.141 147.627 299.461 145.505l4.057-.056c106.061-1.464 255.902-3.532 315.551-90.082 68.778-99.797 47.905-204.996-39.454-284.905z" fill="#fff"/></g><defs><filter id="filter0_di_1494_47811" x=".564" y=".166" width="889.459" height="603.499" filterUnits="userSpaceOnUse" color-interpolation-filters="sRGB"><feFlood flood-opacity="0" result="BackgroundImageFix"/><feColorMatrix in="SourceAlpha" values="0 0 0 0 0 0 0 0 0 0 0 0 0 0 0 0 0 0 127 0" result="hardAlpha"/><feOffset dy="12"/><feGaussianBlur stdDeviation="40"/><feComposite in2="hardAlpha" operator="out"/><feColorMatrix values="0 0 0 0 0.909804 0 0 0 0 0.313726 0 0 0 0 0.470588 0 0 0 1 0"/><feBlend in2="BackgroundImageFix" result="effect1_dropShadow_1494_47811"/><feBlend in="SourceGraphic" in2="effect1_dropShadow_1494_47811" result="shape"/><feColorMatrix in="SourceAlpha" values="0 0 0 0 0 0 0 0 0 0 0 0 0 0 0 0 0 0 127 0" result="hardAlpha"/><feOffset dy="-4"/><feGaussianBlur stdDeviation="4"/><feComposite in2="hardAlpha" operator="arithmetic" k2="-1" k3="1"/><feColorMatrix values="0 0 0 0 0.909804 0 0 0 0 0.313726 0 0 0 0 0.470588 0 0 0 0.48 0"/><feBlend in2="shape" result="effect2_innerShadow_1494_47811"/></filter></defs></svg>

<svg width="891" height="566" viewBox="0 0 891 566" fill="none" xmlns="http://www.w3.org/2000/svg">
<g filter="url(#filter0_di_1494_47811)">
<path fill-rule="evenodd" clip-rule="evenodd" d="M729.581 136.547C640.768 55.3084 385.288 48.7949 274.596 104.601C195.309 144.574 144.497 196.067 134.607 261.688C133.357 269.978 128.679 277.901 120.446 279.484C104.431 282.563 88.2893 277.854 80.6957 275.638C80.6042 275.611 80.5293 275.713 80.5818 275.793C88.4858 287.776 104.444 293.412 117.638 295.667C126.238 297.136 133.591 303.835 134.884 312.463C137.439 329.514 142.413 347.377 149.966 366.085C192.392 471.169 297.107 513.712 449.427 511.59C450.772 511.571 452.124 511.552 453.484 511.534C559.545 510.07 709.386 508.002 769.035 421.452C837.813 321.655 816.94 216.456 729.581 136.547Z" fill="white"/>
</g>
<defs>
<filter id="filter0_di_1494_47811" x="0.564453" y="0.166016" width="889.459" height="603.499" filterUnits="userSpaceOnUse" color-interpolation-filters="sRGB">
<feFlood flood-opacity="0" result="BackgroundImageFix"/>
<feColorMatrix in="SourceAlpha" type="matrix" values="0 0 0 0 0 0 0 0 0 0 0 0 0 0 0 0 0 0 127 0" result="hardAlpha"/>
<feOffset dy="12"/>
<feGaussianBlur stdDeviation="40"/>
<feComposite in2="hardAlpha" operator="out"/>
<feColorMatrix type="matrix" values="0 0 0 0 0.909804 0 0 0 0 0.313726 0 0 0 0 0.470588 0 0 0 1 0"/>
<feBlend mode="normal" in2="BackgroundImageFix" result="effect1_dropShadow_1494_47811"/>
<feBlend mode="normal" in="SourceGraphic" in2="effect1_dropShadow_1494_47811" result="shape"/>
<feColorMatrix in="SourceAlpha" type="matrix" values="0 0 0 0 0 0 0 0 0 0 0 0 0 0 0 0 0 0 127 0" result="hardAlpha"/>
<feOffset dy="-4"/>
<feGaussianBlur stdDeviation="4"/>
<feComposite in2="hardAlpha" operator="arithmetic" k2="-1" k3="1"/>
<feColorMatrix type="matrix" values="0 0 0 0 0.909804 0 0 0 0 0.313726 0 0 0 0 0.470588 0 0 0 0.48 0"/>
<feBlend mode="normal" in2="shape" result="effect2_innerShadow_1494_47811"/>
</filter>
</defs>
</svg>
